!!!COM: Palestrina, Giovanni Perluigi da
!!!OPR: Missa De beata virgine (1567)
!!!OMD: Credo
!!!OTL: Et in Spiritum
**kern	**kern	**kern	**kern
*Ibass	*Itenor	*Icalto	*Icant
!Bassus	!Tenor	!Altus	!Cantus
*clefF4	*clefGv2	*clefG2	*clefG2
*k[b-]	*k[b-]	*k[b-]	*k[b-]
*?:X	*?:X	*?:X	*?:X
*M4/2	*M4/2	*M4/2	*M4/2
=145	=145	=145	=145
1r	2.E	0B	1r
.	4F	.	.
1E	2G	.	[1e
.	2G	.	.
=146	=146	=146	=146
1AA	0A	1c	1e]
2.D	.	2.d	1f
4D	.	4d	.
=147	=147	=147	=147
2GG	1B	2d	2.g
1G	.	1d	.
.	.	.	4g
.	2B	.	2g
2C	2c	2e	[2g
=148	=148	=148	=148
2G	2B	2d	2g]
2A	2.A	2c	2f
1E	.	1B	2.e
.	8G	.	.
.	8F#	.	.
.	2G#	.	.
.	.	.	4d
=149	=149	=149	=149
2r	1A	1A	4c
.	.	.	4B
1A	.	.	1c
.	1r	1e	.
2G	.	.	2B
=150	=150	=150	=150
2F	2r	1f	2c
2D	1A	.	2d
1E	.	1e	1B
.	2G	.	.
=151	=151	=151	=151
1AA	2c	2e	2A
.	2A	2e	1a
1r	1B-	1d	.
.	.	.	2g
=152	=152	=152	=152
1r	1A	1c	2cc
.	.	.	2a
2r	1G	[1d	1b-
[2G	.	.	.
=153	=153	=153	=153
2G]	1D	1d]	1a
2F	.	.	.
2G	1r	2B	2r
2A	.	2c	[2a
=154	=154	=154	=154
2F	2r	1d	2a]
2G	1G	.	2g
1D	.	2d	2a
.	2F	[2d	2a
=155	=155	=155	=155
0r	2G	2d]	2b-
.	2A	2c	2a
.	2F	2d	2a
.	2G	[2e	2g
=156	=156	=156	=156
0r	2A	2e]	1f
.	2B-	1d	.
.	2G	.	1e
.	2A	2c#	.
=157	=157	=157	=157
2r	1D	1d	2d
2D	.	.	2.a
1E	1G	2B	.
.	.	.	4g
.	.	2c	[2g
=158	=158	=158	=158
1D	1A	1d	2g]
.	.	.	2f#
2GG	1G	1d	1g
[2G	.	.	.
=159	=159	=159	=159
4G]	2C	1e	2g
4E	.	.	.
2A	1c	.	2e
2F	.	[1d	2a
2G	[2B	.	2g
=160	=160	=160	=160
1A	4B]	2d]	2f
.	4A	.	.
.	1A	2c	4e
.	.	.	4d
1E	.	1B	[1e
.	2G#	.	.
=161	=161	=161	=161
4AA	2A	2c	1e]
4BB	.	.	.
4C	1A	2c	.
4D	.	.	.
1E	.	1B	2r
.	2G#	.	[2e
=162	=162	=162	=162
1r	2A	1c	4e]
.	.	.	4d
.	2A	.	4e
.	.	.	4f
2r	2G	1d	2g
[2A	2F	.	2a
=163	=163	=163	=163
2A]	1E	0e	2cc
2G#	.	.	2b
2A	1r	.	1cc
2A	.	.	.
=164	=164	=164	=164
2G	2r	1r	2b
2F	1d	.	2a
1E	.	1e	1g
.	2c#	.	.
=165	=165	=165	=165
1D	1d	1f	2r
.	.	.	1a
1r	2c	2e	.
.	2B	2d	2g#
=166	=166	=166	=166
0r	2.A	2c	1a
.	.	1e	.
.	4B	.	.
.	2c	.	2g
.	2d	[2d	2f
=167	=167	=167	=167
2r	1A	4d]	1e
.	.	8c	.
.	.	8B	.
1A	.	2c#	.
.	1D	1d	2d
2F	.	.	2a
=168	=168	=168	=168
2G	2r	2B	2g
2A	1A	2c	2e
1D	.	2d	4f
.	.	.	4g
.	2F	2d	4a
.	.	.	8g
.	.	.	8a
=169	=169	=169	=169
2r	2G	1d	2b-
1D	2A	.	2a
.	2D	1d	2f
2BB	[2G	.	4g
.	.	.	4f
=170	=170	=170	=170
1C	2G]	2c	4e
.	.	.	4d
.	2E	2.e	4c
.	.	.	4B
1D	1F	.	2A
.	.	4d	.
.	.	[2d	[2a
=171	=171	=171	=171
1E	1G	2d]	4a]
.	.	.	4g
.	.	2c#	1g
1D	2A	1d	.
.	2d	.	4f
.	.	.	4e
=172	=172	=172	=172
2r	2d	1r	2f#
2G	2d	.	2g
2G	2e	1B	1g
2G	[2d	.	.
=173	=173	=173	=173
1A	2d]	1c	0r
.	1c	.	.
2G	.	2d	.
2G	[2B	2d	.
=174	=174	=174	=174
2G	2B]	1d	1r
4F	4A	.	.
4E	4G	.	.
2F	2A	1d	2r
2G	2B	.	2g
=175	=175	=175	=175
1C	1c	1e	2g
.	.	.	2g
1r	1F	2d	1a
.	.	2c	.
=176	=176	=176	=176
1r	1G	1B	2g
.	.	.	2g
2r	1D	1A	2g
2D	.	.	4f
.	.	.	4e
=177	=177	=177	=177
2D	2r	1r	2f
2D	2d	.	2f
2A	2d	1e	2e
2A	2c#	.	2a
=178	=178	=178	=178
1D	2d	1f	2a
.	2d	.	2a
2r	1A	2.e	2cc
[2A	.	.	2cc
.	.	4e	.
=179	=179	=179	=179
4A]	1E	2e	1b
4G	.	.	.
2G	.	2e	.
1F	2.A	2d	2r
.	.	2c	[2a
.	4B	.	.
=180	=180	=180	=180
2.E	2c	1.e	2a]
.	2B	.	1g
4D	.	.	.
2C	1A	.	.
2D	.	2d	2f#
=181	=181	=181	=181
1GG	2.B	1d	0g
.	4c	.	.
1G	1d	1B	.
=182	=182	=182	=182
2A	1r	1c	1e
2A	.	.	.
1D	1A	2.d	1f
.	.	4d	.
=183	=183	=183	=183
1G	1B	2d	2.g
.	.	2d	.
.	.	.	4g
1C	2.c	2c	2g
.	.	2e	2g
.	4c	.	.
=184	=184	=184	=184
1D	2A	1d	2f
.	2F	.	2a
1E	2G	1B	1g
.	2G	.	.
=185	=185	=185	=185
1AA	1A	2c	1e
.	.	2c	.
2E	2G	2B	2g
2E	2G	2c	2g
=186	=186	=186	=186
2D	2A	1d	2f
2BB	2B	.	2g
1AA	2c	2e	1a
.	2A	[2c	.
=187	=187	=187	=187
1C	1E	4c]	1g
.	.	4d	.
.	.	1e	.
2C	2G	.	2c
2BB	2G	2d	2d
=188	=188	=188	=188
1C	1G	1c	4e
.	.	.	4c
.	.	.	1cc
1GG	2G	1d	.
.	[2d	.	4b
.	.	.	4a
=189	=189	=189	=189
1G	2d]	0r	4b
.	.	.	4a
.	2.e	.	4g
.	.	.	4f
1A	.	.	1e
.	4d	.	.
.	[2c	.	.
=190	=190	=190	=190
1G	2c]	1d	1r
.	4B	.	.
.	4A	.	.
1E	1B	1e	1g
=191	=191	=191	=191
2F	1A	1d	1a
2D	.	.	.
2.E	2r	1B	1g
.	2E	.	.
4D	.	.	.
=192	=192	=192	=192
2C	2G	2c	1e
2AA	1A	2c	.
1E	.	2B	2.e
.	2G	2c	.
.	.	.	4e
=193	=193	=193	=193
1D	2A	1d	2f#
.	2A	.	2f#
[1C	2c	1e	1g
.	2G	.	.
=194	=194	=194	=194
2C]	2.A	2c	2e
2AA	.	1e	1a
.	4G	.	.
1BB-	2F	.	.
.	4E	[2d	2g
.	4D	.	.
=195	=195	=195	=195
1AA	2E	2d]	1a
.	2A	2c#	.
1D	2A	[1d	[1f#
.	2A	.	.
=196	=196	=196	=196
2D	2B	1d]	1f#]
2D	1d	.	.
1E	.	1r	1g
.	[2c	.	.
=197	=197	=197	=197
2.G	2c]	1d	2g
.	2B	.	2g
8F	.	.	.
8E	.	.	.
2F#	2A	2d	2a
2G	2B	2d	[2g
=198	=198	=198	=198
2.C	2G	1e	4g]
.	.	.	4f
.	2.c	.	4e
4BB	.	.	4d
4AA	.	1c	[1e
4BB	4B	.	.
4C	[2A	.	.
4D	.	.	.
=199	=199	=199	=199
1E	2A]	1B	1e]
.	2G#	.	.
2.F	2.A	1A	2c
.	.	.	[2cc
4G	4B	.	.
=200	=200	=200	=200
2A	2c	1A	4cc]
.	.	.	4b
2D	2d	.	1a
1E	1B	1e	.
.	.	.	2g#
=201	=201	=201	=201
0D	1d	0f	[0a
.	2r	.	.
.	[2d	.	.
=202	=202	=202	=202
1AA	2d]	1e	1a]
.	4c	.	.
.	4B	.	.
2r	2c	1e	2r
[2A	2A	.	[2cc
=203	=203	=203	=203
4A]	1E	0e	4cc]
8G	.	.	8b
8F#	.	.	8a
2G#	.	.	2b
2A	2r	.	2cc
2E	[2c	.	2g
=204	=204	=204	=204
2F	4c]	1d	2a
.	8B	.	.
.	8A	.	.
2G	2B	.	4g
.	.	.	4f
1C	2c	[1c	2e
.	2G	.	[2g
=205	=205	=205	=205
2r	1A	1c]	4g]
.	.	.	8f
.	.	.	8e
2.c	.	.	2f#
.	1G	1d	1g
8B	.	.	.
8A	.	.	.
2B	.	.	.
=206	=206	=206	=206
2.c	1C	0e	2g
.	.	.	2.cc
4B	.	.	.
2A	2r	.	.
.	.	.	4b
2E	[2c	.	2g
=207	=207	=207	=207
2F	4c]	1d	2a
.	8B	.	.
.	8A	.	.
2G	2B	.	4g
.	.	.	4f
1A	2c	1c	2e
.	[2A	.	[2f
=208	=208	=208	=208
1E	4A]	1B	4f]
.	4G	.	4e
.	2G	.	1e
2r	1F	1A	.
[2A	.	.	2d
=209	=209	=209	=209
2A]	0E	0B	[0e
4G	.	.	.
4F#	.	.	.
1G#	.	.	.
=210	=210	=210	=210
1A	1r	0c	1e]
1AA	[1A	.	[1e
=211	=211	=211	=211
1E	2A]	1B	0e_
.	4G	.	.
.	4F#	.	.
[1E	[1G#	[1B	.
=212	=212	=212	=212
1E_	1G#_	1B_	0e_
1E_	1G#_	1B_	.
=213	=213	=213	=213
1E]	1G#]	1B]	1e]
==	==	==	==
*-	*-	*-	*-
!!!CDT: 1525/^1526/-1594/2/2
!!!OCY: Italia
!!!AGN: Mass (Paraphrase)
!!!AST: renaissance, vocal
!!!ASW: Gregorian Mass
!!!PWK: Masses, Book 2
!!!RNB: Cadence finals: G,D,E,F,C
!!!YOR: Le Opere Complete, v. 4, p. 1
!!!YOO: Rome, Italy: Fratelli Scalera
!!!END: 1992//
!!!EED: John Miller
!!!YEC: Copyright 2000, John Miller
!!!YEN: United States of America
!!!YEM: Rights to all derivative electronic formats reserved.
!!!YEM: Refer to licensing agreement for further details.
!!!YEM: This file must be accompanied by the licensing agreement.
!!!YEM: A copy of the licensing agreement may be found at http://www.music-cog.ohio-state.edu/HumdrumDatabases/Palestrina/license.txt
!!!EMD: converted to Humdrum by Bret Aarden
